X: 9606
T: Dawn Chorus, The
R: jig
M: 6/8
K: Gmajor
|:B3 BAB|ded BAG|A2A ABA|DFA AGE|
D2B BAB|ded BAG|AB/c/d BAB|1 FED E2F:|2 FED E2f||
|:g2e eag|faf def|~g3 ~a3|bge e2f|
gag gfe|ded ded|~g3 ~B3|1 dBG GBd:|2 d3 G3||

